src/images/mahasiswa/mahasiswa-male-2.svg

<svg width="120" height="120" viewBox="0 0 120 120" fill="none" xmlns="http://www.w3.org/2000/svg">
<path d="M120 60C120 93.1377 93.1377 120 60 120C26.8623 120 0 93.1377 0 60C0 26.8623 26.8623 0 60 0C93.1377 0 120 26.8623 120 60Z" fill="#B0DD42"/>
<path d="M105.615 86.8112C101.83 81.7283 77.9893 74.1838 76.9418 73.3335C75.8954 72.4833 72.559 67.9697 72.559 67.9697H72.3301V63.0248C73.7628 61.2273 74.8694 59.395 75.5786 57.9286C76.0528 56.9445 76.4605 54.8456 76.809 52.1683C80.7361 50.3667 81.2123 44.0862 81.3779 40.5668C81.4576 38.8572 80.6451 38.6937 79.7316 39.0278C79.7673 38.9594 79.7949 38.895 79.8307 38.8276C80.7044 37.4204 81.3533 35.8743 81.7426 34.2648C84.7603 24.7695 80.2742 19.0643 77.9903 16.9061C77.6234 16.4983 77.2259 16.1356 76.7916 15.827C76.5106 15.3099 76.1662 14.8296 75.736 14.4188C73.8425 12.6142 70.9761 12.4343 68.3641 12.281C65.7532 12.1278 62.8541 11.7568 61.1782 9.74877C61.5798 10.368 61.9814 10.9873 62.3841 11.6055C58.6675 10.6133 55.4414 7.92165 53.7992 4.44315C53.7256 5.16767 53.6521 5.89219 53.5775 6.61671C52.6097 5.79716 51.9445 4.62914 51.734 3.37836C46.3108 6.68109 42.957 12.981 42.9304 19.2983C41.232 20.8168 39.8883 22.7277 39.0043 24.8287C38.7478 25.2753 38.5619 25.8046 38.4403 26.4065C38.0908 27.5797 37.8772 28.7947 37.8271 30.0199C37.7055 32.9844 38.5148 35.9622 40.0446 38.5016C40.0906 38.6569 40.1335 38.8153 40.1795 38.9686C39.3395 38.7213 38.6344 38.9676 38.71 40.5668C38.8746 44.0882 39.3508 50.3718 43.283 52.1713C43.6314 54.8466 44.0392 56.9456 44.5143 57.9286C45.2082 59.3644 46.2822 61.1486 47.6699 62.9093V67.9697H47.44C47.44 67.9697 44.1035 72.4833 43.0571 73.3335C42.0107 74.1838 18.1701 81.7283 14.3851 86.8112C12.9647 88.717 11.7977 91.3259 10.831 94.3691C21.6803 109.861 39.6512 120 60 120C80.3488 120 98.3186 109.862 109.168 94.3691C108.202 91.3259 107.034 88.717 105.615 86.8112Z" fill="#3F5B23"/>
</svg>

<?xml version="1.0" encoding="UTF-8" standalone="no"?>
<svg width="120" xmlns="http://www.w3.org/2000/svg" viewBox="0 0 120 120" height="120">
 <path d="m120 60c0 33.138-26.862 60-60 60s-60-26.862-60-60 26.862-60 60-60 60 26.862 60 60z" fill="#B0DD42"/>
 <path d="m105.62 86.811c-3.79-5.083-27.631-12.627-28.678-13.477-1.047-0.851-4.383-5.364-4.383-5.364h-0.229v-4.945c1.433-1.798 2.539-3.63 3.249-5.096 0.474-0.985 0.881-3.083 1.23-5.761 3.927-1.801 4.403-8.082 4.569-11.601 0.08-1.71-0.733-1.873-1.646-1.539 0.035-0.069 0.063-0.133 0.099-0.2 0.873-1.408 1.522-2.954 1.912-4.563 3.017-9.495-1.469-15.201-3.753-17.359-0.367-0.408-0.764-0.77-1.198-1.079-0.281-0.517-0.626-0.997-1.056-1.408-1.894-1.805-4.76-1.985-7.372-2.138-2.611-0.153-5.51-0.524-7.186-2.5322 0.402 0.6192 0.803 1.2382 1.206 1.8572-3.716-0.993-6.943-3.6844-8.585-7.1628-0.073 0.7245-0.147 1.449-0.221 2.1735-0.968-0.8195-1.634-1.9876-1.844-3.2383-5.423 3.3027-8.777 9.6026-8.804 15.92-1.698 1.519-3.042 3.43-3.926 5.531-0.256 0.446-0.442 0.976-0.564 1.577-0.349 1.174-0.563 2.389-0.613 3.614-0.121 2.964 0.688 5.942 2.218 8.482 0.046 0.155 0.089 0.313 0.135 0.467-0.84-0.248-1.546-0.001-1.47 1.598 0.165 3.521 0.641 9.805 4.573 11.604 0.348 2.676 0.756 4.775 1.231 5.758 0.694 1.435 1.768 3.22 3.156 4.98v5.061h-0.23s-3.336 4.513-4.383 5.364c-1.046 0.85-24.887 8.394-28.672 13.477-1.42 1.906-2.587 4.515-3.554 7.558 10.849 15.491 28.82 25.631 49.169 25.631s38.319-10.14 49.17-25.631c-0.97-3.043-2.14-5.652-3.55-7.558z" fill="#3F5B23"/>
</svg>
